app/dist/common/images/interprivate-iii-financial-partners.svg

<svg height="18" viewBox="0 0 18 18" width="18" xmlns="http://www.w3.org/2000/svg"><path d="m0 0h18v18h-18z" fill="#3e4857"/><path d="m4 7v4h-1v-4zm6 1.5c0 .92-.33 1.5-1.5 1.5h-1.5v1h-1v-4h2.5c1.17 0 1.5.58 1.5 1.5zm-2 .5c.5 0 1-.07 1-.5s-.5-.5-1-.5h-1v1zm8-2-2.08 4h-.84l-2.08-4h1l1.5 3 1.58-3z" fill="#fef9fd"/></svg>

<!-- by TradingView --><svg width="18" height="18" viewBox="0 0 18 18" xmlns="http://www.w3.org/2000/svg"><path fill="#3E4857" d="M0 0h18v18H0z"/><path d="M4 7v4H3V7h1ZM10 8.5c0 .92-.33 1.5-1.5 1.5H7v1H6V7h2.5c1.17 0 1.5.58 1.5 1.5ZM8 9c.5 0 1-.07 1-.5S8.5 8 8 8H7v1h1ZM16 7l-2.08 4h-.84L11 7h1l1.5 3 1.58-3H16Z" fill="#FEF9FD"/></svg>
